X:58
T:Cunla
M:6/8
L:1/8
K:D
   AG|:FEA DDD|AdB cBA|AAA BAG|FAF GED|
     |DAD EFG|Add cAG|FFF GEA|1DDD D3:|2DDD D2A|
     |:d2e fed|efd cAG|AAA BAG|FAF GED|
     |d2e fed|efd cAG|FFF GEA|1D2D D2A:|2D2D D2D|
     |:AAd AGF|FAA G2E|D3D2z|d2e f2d|eed c/2c/2AG|
     |A2A A2G|FFF G/2G/2ED|d2e f2d|eed c/2c/2AG:|
     |:FFF GEA|D3D2z|FED EFG|AAd AGF|FAA A2G|
     |FFF GED|FED F2G|AAd AGF|FAA G2E|D3D3:|
     |:d2e f2d|eed c/2c/2AG|A2A A2G|FFF G/2G/2ED|
     |d2e f2d|eed c/2c/2AG|FFF GEA|D3D2D:|
